X:444
T:The traveling kind
C:Junior Sisk (Brand new shade of blue)
N:solo dAshby Franck - Transcribed by Philippe Colleu
R:bluegrass
L:1/8
Q:1/4=248
M:4/4
K:C
"(125bpm)"z[B^F] z[BF] [^c2A2] [d2_B2] | "B"[d_B][^d=B] [dB]=d [d_B][^d=B] [dB]A | 
d^c B^G cG B=G/z/ | "E"^GB =G^F E^C B,C | E2 B,D ^FB2B | "B"{d}^d^f zd f2 b^g | 
^fd/z/ ^df =d^c BA | "F#"^c^f cc {^g}_bf ^dc | ^fA B"2"^d/z/ fb2^g | "B"bb d'^d' =d'^d' b^g | 
be' ^c'b c'c' b^g | "E"^c'^g b=g/z/ ^ge ^cB | e2 ee ^fb2b | "B"d'/z/^d' b^f ^dd bb | 
"F#"zB ^g2 A^f2f | "B"ed e^f {d}^dB A^F | AB A^F AF E/=F/E | ^DE F^F DB, ^G,_B, | 
B,2 [B^DB,][BDB,] [BDB,][BDB,] [BDB,]A | ^F8 | 


